def HALProcedure() :

set_payload(1.42)
set_tcp(p[0,0,0.112322,0,0,0])
movep(p[0.405772,0.181934,0.742363,0,1.570796,0], a=10, v=0.25, r=0.001)
movep(p[0.405772,-0.168016,0.742363,0,1.570796,0], a=10, v=0.25, r=0.001)
movep(p[0.405772,-0.168016,0.392413,0,1.570796,0], a=10, v=0.25, r=0.001)
movep(p[0.405772,0.181934,0.392413,0,1.570796,0], a=10, v=0.25, r=0.001)
movep(p[0.405772,0.181934,0.742363,0,1.570796,0], a=10, v=0.25, r=0.001)
movep(p[0.354337,0.179744,0.672863,0,2.221441,2.221441], a=10, v=0.25, r=0.001)
movep(p[0.354337,0.179744,0.456263,0,2.221441,2.221441], a=10, v=0.25, r=0.001)
movep(p[0.354337,0.116244,0.392763,0,3.141593,0], a=10, v=0.25, r=0.001)
movep(p[0.354337,-0.102326,0.392763,0,3.141593,0], a=10, v=0.25, r=0.001)
movep(p[0.354337,-0.165826,0.456263,0,2.221441,-2.221441], a=10, v=0.25, r=0.001)
movep(p[0.354337,-0.165826,0.672863,0,2.221441,-2.221441], a=10, v=0.25, r=0.001)

end


HALProcedure()
